public/img/moods/surprised.svg

<?xml version="1.0" encoding="UTF-8" standalone="no"?>
<!-- Generator: Adobe Illustrator 16.0.0, SVG Export Plug-In . SVG Version: 6.00 Build 0)  -->
<!DOCTYPE svg  PUBLIC '-//W3C//DTD SVG 1.1//EN'  'http://www.w3.org/Graphics/SVG/1.1/DTD/svg11.dtd'>
<svg id="Capa_1" style="enable-background:new 0 0 478.2 478.2" xmlns="http://www.w3.org/2000/svg" xml:space="preserve" height="512px" viewBox="0 0 478.2 478.2" width="512px" version="1.1" y="0px" x="0px" xmlns:xlink="http://www.w3.org/1999/xlink">
	<path d="m172.1 172.1c0 10.5-8.6 19.1-19.1 19.1s-19.1-8.6-19.1-19.1 8.6-19.1 19.1-19.1 19.1 8.6 19.1 19.1zm114.8 162.6c0 26.8-21 47.8-47.801 47.8-26.8 0-47.8-21-47.8-47.8s21-47.8 47.8-47.8c26.7 0 47.8 21 47.8 47.8zm-19.1 0c0-15.3-13.399-28.7-28.7-28.7-15.3 0-28.7 13.4-28.7 28.7s13.4 28.7 28.7 28.7c15.3 0 28.7-13.4 28.7-28.7zm210.4-95.6c0 132-107.1 239.1-239.1 239.1s-239.1-107.1-239.1-239.1 107.1-239.1 239.1-239.1c131.9 0 239.1 107.1 239.1 239.1zm-19.2 0c0-122.4-97.5-219.9-219.9-219.9s-219.9 97.5-219.9 219.9 97.5 219.9 219.9 219.9 219.9-97.5 219.9-219.9zm-133.9-86.1c-10.5 0-19.1 8.6-19.1 19.1s8.6 19.1 19.1 19.1 19.101-8.6 19.101-19.1-8.6-19.1-19.1-19.1z" fill="#eda868"/>
</svg>

<?xml version="1.0" encoding="iso-8859-1"?>
<!-- Generator: Adobe Illustrator 16.0.0, SVG Export Plug-In . SVG Version: 6.00 Build 0)  -->
<!DOCTYPE svg PUBLIC "-//W3C//DTD SVG 1.1//EN" "http://www.w3.org/Graphics/SVG/1.1/DTD/svg11.dtd">
<svg xmlns="http://www.w3.org/2000/svg" xmlns:xlink="http://www.w3.org/1999/xlink" version="1.1" id="Capa_1" x="0px" y="0px" width="512px" height="512px" viewBox="0 0 478.2 478.2" style="enable-background:new 0 0 478.2 478.2;" xml:space="preserve">
<g>
	<path d="M172.1,172.1c0,10.5-8.6,19.1-19.1,19.1s-19.1-8.6-19.1-19.1S142.5,153,153,153S172.1,161.6,172.1,172.1z M286.9,334.7   c0,26.8-21,47.8-47.801,47.8c-26.8,0-47.8-21-47.8-47.8s21-47.8,47.8-47.8C265.8,286.9,286.9,307.9,286.9,334.7z M267.8,334.7   c0-15.3-13.399-28.7-28.7-28.7c-15.3,0-28.7,13.4-28.7,28.7s13.4,28.7,28.7,28.7C254.4,363.4,267.8,350,267.8,334.7z M478.2,239.1   C478.2,371.1,371.1,478.2,239.1,478.2C107.1,478.2,0,371.1,0,239.1C0,107.1,107.1,0,239.1,0C371,0,478.2,107.1,478.2,239.1z    M459,239.1C459,116.7,361.5,19.2,239.1,19.2C116.7,19.2,19.2,116.7,19.2,239.1C19.2,361.5,116.7,459,239.1,459   C361.5,459,459,361.5,459,239.1z M325.1,153c-10.5,0-19.1,8.6-19.1,19.1s8.6,19.1,19.1,19.1s19.101-8.6,19.101-19.1   S335.6,153,325.1,153z" fill="#eda868"/>
</g>
<g>
</g>
<g>
</g>
<g>
</g>
<g>
</g>
<g>
</g>
<g>
</g>
<g>
</g>
<g>
</g>
<g>
</g>
<g>
</g>
<g>
</g>
<g>
</g>
<g>
</g>
<g>
</g>
<g>
</g>
</svg>
